X:1
T:Let the Laurel Twine
T:Let the Laurel Twine
T:Isaac Hickman Meredith
T:Eliza Edmunds Hewitt, 1912
T:Public Domain Courtesy of the Cyber Hymnal™
T:Public Domain Courtesy of the Cyber Hymnal™
C:Isaac Hickman Meredith
Z:Public Domain
Z:Courtesy of the Cyber Hymnal™
%%score ( 1 2 ) ( 3 4 )
L:1/8
Q:1/4=88
M:2/4
K:C
V:1 treble 
V:2 treble 
V:3 bass 
V:4 bass 
V:1
 [CEG][CEG] [CE][CEG] | A4 [CE]2 | [CEG][CEG] [CE][CEG] | B4 [CE]2 | [EGc]2 [EGB]2 | %5
w: 1.~Let the lau- rel|twine, With|* the fra- grant|pine, And|* the|
w: 2.~Trim the fes- tive|tree, Keep-|* ing ju- bi-|lee; We|* will|
w: 3.~Out- ward signs of|joy We|* would not des-|troy, While|* our|
 [EGd][EGc] [CG][CGA] | c4 ([DF][DF][DF] | [DFB]4) | [FGBd][FGBd] [FGB^c][GBe] | [FGBd]4 | %10
w: hol- ly ber- ries|gay; Let * *||our hearts be light,|And|
w: spread good will and|cheer; For * *||the Sav- ior born|Com-|
w: we bless- ings re-|call; But * *||the bless- èd love|Of|
 [EGc][EGc] [EGB][EGd] | c4 [CG]2 | [C^FB]2 [CFA]2 | [C^F^G][CFA] [DFB][DFc] | d4- ([FB][FA][FA] | %15
w: our fire- sides bright,|On the|* hap-|py Christ- mas Day.||
w: forts those who mourn,|And His|* birth-|day now is here.|Hail, hail, * *|
w: the King a- bove,|Is the|* great-|est joy of all.||
 [FGd]4) ||"^Refrain" !>![Ec]2 z2 |"^Parts" !>![Ec]2 z [EG] | [GB][FA] [FA][F^G] | [FA]4 | %20
w: |||||
w: |O|hail the|hap- py day! “Joy,|joy,”|
w: |||||
 !>![^Fd]2 z2 | !>![^Fd]2 z [FA] | [Fc][FB] [FB][Fc] | [Fd]4 |"^Girls" e2 B2 | dc c2 | %26
w: ||||||
w: O|hear the|an- gels say; Let|us|cheer the|sad With the|
w: ||||||
"^Boys" c2 ^G2 | BA A2 |"^All" [EG][EG] [CE][EG] | [Gc]4 | [FA][FA] F[FA] | [Fd]4 | %32
w: ||||||
w: tid- ings|glad, “Un- to|you is born,” Hear|the|bless- èd word “Un-|to|
w: ||||||
 [GB][GB] [Gc][Gd] | [Ge][Ge] [Ff][Fd] | [Ec]4 | B4 | [Ec]4- x4 | !fermata![Ec]2 z2 |] %38
w: ||||||
w: you is born a|Sav- ior, Christ, the|Lord.”||||
w: ||||||
V:2
 x4 | [CE]2 x4 | x4 | [CE]2 x4 | x4 | x4 | [DF] x6 | x4 | x4 | x4 | x4 | [EG]2 x4 | x4 | x4 | %14
 [FB] x6 | x4 || x4 | x4 | x4 | x4 | x4 | x4 | x4 | x4 | x4 | x4 | x4 | x4 | x4 | x4 | x2 F x | %31
 x4 | x4 | x4 | x4 | (D2 F2) | x8 | x4 |] %38
V:3
 C,2 G,,2 | (C,2 G,,2) x2 | C,2 G,,2 | (C,2 G,,2) x2 | C,2 G,,2 | C,2 E,2 | (D,2 G,,2 x3 | %7
 D,2 G,,2) | B,,2 G,,2 | (B,,2 G,,2) | C,2 G,,2 | (C,2 E,2) x2 | D,4 | D,,2 D,2 | %14
 (G,,{B,} DCB, x3 | B,4) || !>![C,C]2 z2 | !>![C,G,]2 z [C,C] | [F,C][F,C] [F,C][F,B,] | [F,C]4 | %20
 !>![D,D]2 z2 | !>![D,A,]2 z [D,C] | [G,D][G,D] [G,D][G,A,] | [G,B,]4 | E,,2 [E,^G,D]2 | %25
 A,,2 [E,A,C]2 | E,,2 [E,^G,D]2 | F,,2 [F,A,C]2 | [C,C][C,C] [C,G,][C,C] | [E,C]4 | %30
 [F,C][F,C] [F,A,][F,C] | [D,D]4 | [G,D][F,D] [E,C][G,B,] | C[B,_C] [A,C][F,A,] | G,4 | [G,,G,]4 | %36
 [C,G,]4- !fermata![C,G,]2 z2 | x4 |] %38
V:4
 x4 | x6 | x4 | x6 | x4 | x4 | x7 | x4 | x4 | x4 | x4 | x6 | x4 | x4 | x7 | x4 || x4 | x4 | x4 | %19
 x4 | x4 | x4 | x4 | x4 | x4 | x4 | x4 | x4 | x4 | x4 | x4 | x4 | x4 | _C x3 | G,4 | x4 | x8 | %37
 x4 |] %38

